X:1
T:Title
%%score 1 { ( 2 4 ) | ( 3 5 6 ) }
L:1/8
M:3/4
K:D
V:1 treble nm="Akkordion"
V:2 treble nm="Grand Piano"
V:4 treble 
V:3 bass 
V:5 bass 
V:6 bass 
V:1
 z2 z2[Q:1/4=100] A>A | d2 B2 d2 | c4 B>A | B2 F2 B2 | A4 F>E | D2 D2 E2 | F2 B2 c2 | d2 c2 B2 | %8
 B4 A>A | d2 B2 d2 | c4 B>A | B2 F2 B2 | A4 F>E | D3 E D2 | D2 =F2 ^A2 | d3 =c ^A2 | d4 D2 | %17
 G2 E2 F2 |[M:2/4] D4 |] %19
V:2
 z2 z2 A>A | d2 z2 z2 | [Gc]4 [CGB]2 | [FB]2 F2 [DB]2 | z2 z2 F2 | [F,D]2 D2[K:treble] E2 | %6
 F2 [FB]2 [FBc]2 | [FGd]2 [Gc]2 [GB]2 | [CGB]4 [GA]>[EA] | [Ad]2 [DAB]2 [Ad]2 | %10
 [Gc]4[K:bass][K:treble] B2 | [FB]2 [DF]2 [FB]2 | z2 z2 F2 | [F,D]3 E [A,D]2 | %14
 [=F,^A,D]2[K:treble] [D=F]2 [F^A]2 | [=F^Ad]3 [F=c] [FA]2 | [DFd]4 [A,D]2 | %17
 [B,DG]2 [B,E]2 [G,CF]2 |[M:2/4][K:bass] [F,A,D]4 |] %19
V:3
 z6 | [A,-D]4 A,2 | [A,-C]4 A,2 | [A,-D]4 A,2 | E,2 z2 A,>G, | z2 F,2 B,2 | D2 D2 D2 | z2 E2 D2 | %8
 A,,2 E,2 C>G, | [F,D]2 z2 z2 | [A,C]4 z2 | [D,D]2 z2 z2 | E,2 z2 A,>G, | z2 z G, F,2 | %14
 z2 ^A,2[K:treble] D2 | z2 z ^D =D2 | A,2[K:bass] z2 F,2 | z2 G,2 A,,2 |[M:2/4] D,4 |] %19
V:4
 x6 | F2- [FB]2 [DFd]2 | x6 | x6 | [A,CGA]4 C->[CE] | x4[K:treble] x2 | x6 | x6 | x6 | x6 | %10
 z2[K:bass] A,,2[K:treble] G->[GA] | x6 | [A,CGA]4 C->[CE] | x6 | x2[K:treble] x4 | x6 | x6 | x6 | %18
[M:2/4][K:bass] x4 |] %19
V:5
 x6 | D,2 A,,2 D,2 | E,2 A,,2 z z/ A/ | D,2 A,,2 D,2 | z2 A,,4 | B,,6- | B,,6 | E,6 | x6 | %9
 A,2- [A,,A,]2 [F,A,D]2 | E,2 z2 [E,A,C]2 | A,2- [A,,A,]2 [^D,A,=C]2 | z2 A,,4 | D,6 | %14
 ^A,,6[K:treble] | ^A,6 | z2[K:bass] A,,4 | A,,4 z2 |[M:2/4] x4 |] %19
V:6
 x6 | x6 | z2 z2 E,2 | x6 | x6 | x6 | x6 | x6 | x6 | x6 | x6 | x6 | x6 | x6 | x4[K:treble] x2 | %15
 x6 | x2[K:bass] x4 | x6 |[M:2/4] x4 |] %19

